static/img/kroki/1404827dfd7fd7f0cfbf0f0c634fd511.svg

<?xml version="1.0" encoding="us-ascii" standalone="no"?><svg xmlns="http://www.w3.org/2000/svg" xmlns:xlink="http://www.w3.org/1999/xlink" contentStyleType="text/css" height="645px" preserveAspectRatio="none" style="width:409px;height:645px;" version="1.1" viewBox="0 0 409 645" width="409px" zoomAndPan="magnify"><defs/><g><!--class account--><g id="elem_account"><rect codeLine="22" fill="#3D176E" height="39.7891" id="account" rx="2.5" ry="2.5" style="stroke:#000D19;stroke-width:0.5;" width="107" x="235.5" y="438.76"/><ellipse cx="250.5" cy="458.6545" fill="#ADD1B2" rx="11" ry="11" style="stroke:#181818;stroke-width:1.0;"/><path d="M253.4688,464.2952 Q252.8906,464.592 252.25,464.7327 Q251.6094,464.8889 250.9063,464.8889 Q248.4063,464.8889 247.0781,463.2483 Q245.7656,461.592 245.7656,458.467 Q245.7656,455.342 247.0781,453.6858 Q248.4063,452.0295 250.9063,452.0295 Q251.6094,452.0295 252.25,452.1858 Q252.9063,452.342 253.4688,452.6389 L253.4688,455.3577 Q252.8438,454.7795 252.25,454.5139 Q251.6563,454.2327 251.0313,454.2327 Q249.6875,454.2327 249,455.3108 Q248.3125,456.3733 248.3125,458.467 Q248.3125,460.5608 249,461.6389 Q249.6875,462.7014 251.0313,462.7014 Q251.6563,462.7014 252.25,462.4358 Q252.8438,462.1545 253.4688,461.5764 L253.4688,464.2952 Z " fill="#000000"/><text fill="#D9B8FF" font-family="Helvetica" font-size="17" lengthAdjust="spacing" textLength="65" x="269.5" y="464.5398">account</text></g><!--class onelogin_account--><g id="elem_onelogin_account"><rect codeLine="24" fill="#3D176E" height="39.7891" id="onelogin_account" rx="2.5" ry="2.5" style="stroke:#000D19;stroke-width:0.5;" width="188" x="45" y="599.55"/><ellipse cx="60" cy="619.4445" fill="#ADD1B2" rx="11" ry="11" style="stroke:#181818;stroke-width:1.0;"/><path d="M62.9688,625.0852 Q62.3906,625.382 61.75,625.5227 Q61.1094,625.6789 60.4063,625.6789 Q57.9063,625.6789 56.5781,624.0383 Q55.2656,622.382 55.2656,619.257 Q55.2656,616.132 56.5781,614.4758 Q57.9063,612.8195 60.4063,612.8195 Q61.1094,612.8195 61.75,612.9758 Q62.4063,613.132 62.9688,613.4289 L62.9688,616.1477 Q62.3438,615.5695 61.75,615.3039 Q61.1563,615.0227 60.5313,615.0227 Q59.1875,615.0227 58.5,616.1008 Q57.8125,617.1633 57.8125,619.257 Q57.8125,621.3508 58.5,622.4289 Q59.1875,623.4914 60.5313,623.4914 Q61.1563,623.4914 61.75,623.2258 Q62.3438,622.9445 62.9688,622.3664 L62.9688,625.0852 Z " fill="#000000"/><text fill="#D9B8FF" font-family="Helvetica" font-size="17" lengthAdjust="spacing" textLength="146" x="79" y="625.3298">onelogin_account</text></g><!--class onelogin_resource--><g id="elem_onelogin_resource"><rect codeLine="26" fill="#3D176E" height="39.7891" id="onelogin_resource" rx="2.5" ry="2.5" style="stroke:#000D19;stroke-width:0.5;" width="194" x="7" y="438.76"/><ellipse cx="22" cy="458.6545" fill="#ADD1B2" rx="11" ry="11" style="stroke:#181818;stroke-width:1.0;"/><path d="M24.9688,464.2952 Q24.3906,464.592 23.75,464.7327 Q23.1094,464.8889 22.4063,464.8889 Q19.9063,464.8889 18.5781,463.2483 Q17.2656,461.592 17.2656,458.467 Q17.2656,455.342 18.5781,453.6858 Q19.9063,452.0295 22.4063,452.0295 Q23.1094,452.0295 23.75,452.1858 Q24.4063,452.342 24.9688,452.6389 L24.9688,455.3577 Q24.3438,454.7795 23.75,454.5139 Q23.1563,454.2327 22.5313,454.2327 Q21.1875,454.2327 20.5,455.3108 Q19.8125,456.3733 19.8125,458.467 Q19.8125,460.5608 20.5,461.6389 Q21.1875,462.7014 22.5313,462.7014 Q23.1563,462.7014 23.75,462.4358 Q24.3438,462.1545 24.9688,461.5764 L24.9688,464.2952 Z " fill="#000000"/><text fill="#D9B8FF" font-family="Helvetica" font-size="17" lengthAdjust="spacing" textLength="152" x="41" y="464.5398">onelogin_resource</text></g><!--class resource--><g id="elem_resource"><rect codeLine="28" fill="#3D176E" height="310.7578" id="resource" rx="2.5" ry="2.5" style="stroke:#000D19;stroke-width:0.5;" width="227" x="175.5" y="7"/><ellipse cx="244.25" cy="26.8945" fill="#ADD1B2" rx="11" ry="11" style="stroke:#181818;stroke-width:1.0;"/><path d="M247.2188,32.5352 Q246.6406,32.832 246,32.9727 Q245.3594,33.1289 244.6563,33.1289 Q242.1563,33.1289 240.8281,31.4883 Q239.5156,29.832 239.5156,26.707 Q239.5156,23.582 240.8281,21.9258 Q242.1563,20.2695 244.6563,20.2695 Q245.3594,20.2695 246,20.4258 Q246.6563,20.582 247.2188,20.8789 L247.2188,23.5977 Q246.5938,23.0195 246,22.7539 Q245.4063,22.4727 244.7813,22.4727 Q243.4375,22.4727 242.75,23.5508 Q242.0625,24.6133 242.0625,26.707 Q242.0625,28.8008 242.75,29.8789 Q243.4375,30.9414 244.7813,30.9414 Q245.4063,30.9414 246,30.6758 Q246.5938,30.3945 247.2188,29.8164 L247.2188,32.5352 Z " fill="#000000"/><text fill="#D9B8FF" font-family="Helvetica" font-size="17" lengthAdjust="spacing" textLength="71" x="269.75" y="32.7798">resource</text><line style="stroke:#000D19;stroke-width:0.5;" x1="176.5" x2="401.5" y1="46.7891" y2="46.7891"/><text fill="#D9B8FF" font-family="sans-serif" font-size="14" font-weight="bold" lengthAdjust="spacing" textLength="29" x="186.5" y="68.7842">age</text><text fill="#D9B8FF" font-family="sans-serif" font-size="14" lengthAdjust="spacing" textLength="66" x="215.5" y="68.7842">: duration</text><text fill="#D9B8FF" font-family="sans-serif" font-size="14" font-weight="bold" lengthAdjust="spacing" textLength="43" x="186.5" y="95.0811">atime</text><text fill="#D9B8FF" font-family="sans-serif" font-size="14" lengthAdjust="spacing" textLength="70" x="229.5" y="95.0811">: datetime</text><text fill="#D9B8FF" font-family="sans-serif" font-size="14" font-weight="bold" lengthAdjust="spacing" textLength="43" x="186.5" y="121.3779">ctime</text><text fill="#D9B8FF" font-family="sans-serif" font-size="14" lengthAdjust="spacing" textLength="70" x="229.5" y="121.3779">: datetime</text><text fill="#D9B8FF" font-family="sans-serif" font-size="14" font-weight="bold" lengthAdjust="spacing" textLength="14" x="186.5" y="147.6748">id</text><text fill="#D9B8FF" font-family="sans-serif" font-size="14" lengthAdjust="spacing" textLength="48" x="200.5" y="147.6748">: string</text><text fill="#D9B8FF" font-family="sans-serif" font-size="14" font-weight="bold" lengthAdjust="spacing" textLength="33" x="186.5" y="173.9717">kind</text><text fill="#D9B8FF" font-family="sans-serif" font-size="14" lengthAdjust="spacing" textLength="48" x="219.5" y="173.9717">: string</text><text fill="#D9B8FF" font-family="sans-serif" font-size="14" font-weight="bold" lengthAdjust="spacing" textLength="90" x="186.5" y="200.2686">last_access</text><text fill="#D9B8FF" font-family="sans-serif" font-size="14" lengthAdjust="spacing" textLength="66" x="276.5" y="200.2686">: duration</text><text fill="#D9B8FF" font-family="sans-serif" font-size="14" font-weight="bold" lengthAdjust="spacing" textLength="90" x="186.5" y="226.5654">last_update</text><text fill="#D9B8FF" font-family="sans-serif" font-size="14" lengthAdjust="spacing" textLength="66" x="276.5" y="226.5654">: duration</text><text fill="#D9B8FF" font-family="sans-serif" font-size="14" font-weight="bold" lengthAdjust="spacing" textLength="48" x="186.5" y="252.8623">mtime</text><text fill="#D9B8FF" font-family="sans-serif" font-size="14" lengthAdjust="spacing" textLength="70" x="234.5" y="252.8623">: datetime</text><text fill="#D9B8FF" font-family="sans-serif" font-size="14" font-weight="bold" lengthAdjust="spacing" textLength="43" x="186.5" y="279.1592">name</text><text fill="#D9B8FF" font-family="sans-serif" font-size="14" lengthAdjust="spacing" textLength="48" x="229.5" y="279.1592">: string</text><text fill="#D9B8FF" font-family="sans-serif" font-size="14" font-weight="bold" lengthAdjust="spacing" textLength="34" x="186.5" y="305.4561">tags</text><text fill="#D9B8FF" font-family="sans-serif" font-size="14" lengthAdjust="spacing" textLength="171" x="220.5" y="305.4561">: dictionary[string, string]</text></g><!--reverse link resource to account--><g id="link_resource_account"><path codeLine="40" d="M289,338.65 C289,379.33 289,417.03 289,438.68 " fill="none" id="resource-backto-account" style="stroke:#FFAF37;stroke-width:2.0;"/><polygon fill="none" points="282,338.85,289,318.85,296,338.85,282,338.85" style="stroke:#FFAF37;stroke-width:2.0;"/></g><!--reverse link account to onelogin_account--><g id="link_account_onelogin_account"><path codeLine="41" d="M256.86,493.68 C226.44,525.88 181.86,573.08 157.16,599.22 " fill="none" id="account-backto-onelogin_account" style="stroke:#FFAF37;stroke-width:2.0;"/><polygon fill="none" points="251.08,489.54,269.91,479.81,261.26,499.16,251.08,489.54" style="stroke:#FFAF37;stroke-width:2.0;"/></g><!--reverse link onelogin_resource to onelogin_account--><g id="link_onelogin_resource_onelogin_account"><path codeLine="42" d="M112.69,499.1 C119.72,530.99 129.32,574.51 134.76,599.22 " fill="none" id="onelogin_resource-backto-onelogin_account" style="stroke:#FFAF37;stroke-width:2.0;"/><polygon fill="none" points="105.69,500.85,108.22,479.81,119.36,497.83,105.69,500.85" style="stroke:#FFAF37;stroke-width:2.0;"/></g><!--SRC=[XPBDQy904CNl_XKBtgI2Lbgrz6A5qbwarDvAAUFk92uckp8xgTYF_xsxHcLD_BWbx_qoxysGkLOeC5_oMkIOpv1SmosqMG91BaP4TZMscINHJ198Ulsg-MWDNmGcaADumkmBMKke4czpBHS6dHFNaVK0Sf6IBOmgnpE1STv2mn4rpi2v4JFfMS4ObL73sI19gcHrQBEdklrRh66M5D8MwNGwgZki8XUZpkwz9wRw6qKtFjh4CjPgrY8srDcMWOXArXRT-ISxle1IsgJY9j9Uoqvaa0xqwHoKNGKwWSp5COwHqF9wYUFQLZWSgAH_57u-1SjmEG5IUel5J-DlgrY3cKsr-JnZ4JfRaCJ8YwHM2r9ijUw4AWXOMnCKrdcf0MDuzfeyecaL1ET_GvFwLx_GeU2pE3JpFtabOUCKop2hukH7SWoKqdumGrfEr39y1hH-BxshBVFXLzqlUV_RRhTtnsliBbMgrGCswcSx3lu3]--></g></svg>

<svg xmlns="http://www.w3.org/2000/svg" width="409" height="645" preserveAspectRatio="none" style="width:409px;height:645px"><rect width="107" height="39.789" x="235.5" y="438.76" fill="#3D176E" rx="2.5" ry="2.5" style="stroke:#000d19;stroke-width:.5"/><circle cx="250.5" cy="458.654" r="11" fill="#ADD1B2" style="stroke:#181818;stroke-width:1"/><path d="M253.469 464.295q-.578.297-1.219.438-.64.156-1.344.156-2.5 0-3.828-1.64-1.312-1.657-1.312-4.782t1.312-4.781q1.328-1.656 3.828-1.656.703 0 1.344.156.656.156 1.219.453v2.719q-.625-.579-1.219-.844-.594-.281-1.219-.281-1.344 0-2.031 1.078-.688 1.062-.688 3.156 0 2.094.688 3.172.688 1.062 2.031 1.062.625 0 1.219-.265.594-.281 1.219-.86v2.72Z"/><text x="269.5" y="464.54" fill="#D9B8FF" font-family="Helvetica" font-size="17" textLength="65">account</text><rect width="188" height="39.789" x="45" y="599.55" fill="#3D176E" rx="2.5" ry="2.5" style="stroke:#000d19;stroke-width:.5"/><circle cx="60" cy="619.444" r="11" fill="#ADD1B2" style="stroke:#181818;stroke-width:1"/><path d="M62.969 625.085q-.578.297-1.219.438-.64.156-1.344.156-2.5 0-3.828-1.64-1.312-1.657-1.312-4.782t1.312-4.781q1.328-1.657 3.828-1.657.703 0 1.344.157.656.156 1.219.453v2.719q-.625-.579-1.219-.844-.594-.281-1.219-.281-1.343 0-2.031 1.078-.688 1.062-.688 3.156 0 2.094.688 3.172.688 1.062 2.031 1.062.625 0 1.219-.265.594-.282 1.219-.86v2.72Z"/><text x="79" y="625.33" fill="#D9B8FF" font-family="Helvetica" font-size="17" textLength="146">onelogin_account</text><rect width="194" height="39.789" x="7" y="438.76" fill="#3D176E" rx="2.5" ry="2.5" style="stroke:#000d19;stroke-width:.5"/><circle cx="22" cy="458.654" r="11" fill="#ADD1B2" style="stroke:#181818;stroke-width:1"/><path d="M24.969 464.295q-.578.297-1.219.438-.64.156-1.344.156-2.5 0-3.828-1.64-1.312-1.657-1.312-4.782t1.312-4.781q1.328-1.656 3.828-1.656.703 0 1.344.156.656.156 1.219.453v2.719q-.625-.579-1.219-.844-.594-.281-1.219-.281-1.343 0-2.031 1.078-.688 1.062-.688 3.156 0 2.094.688 3.172.688 1.062 2.031 1.062.625 0 1.219-.265.594-.281 1.219-.86v2.72Z"/><text x="41" y="464.54" fill="#D9B8FF" font-family="Helvetica" font-size="17" textLength="152">onelogin_resource</text><rect width="227" height="310.758" x="175.5" y="7" fill="#3D176E" rx="2.5" ry="2.5" style="stroke:#000d19;stroke-width:.5"/><circle cx="244.25" cy="26.895" r="11" fill="#ADD1B2" style="stroke:#181818;stroke-width:1"/><path d="M247.219 32.535q-.578.297-1.219.438-.64.156-1.344.156-2.5 0-3.828-1.64-1.312-1.657-1.312-4.782t1.312-4.781q1.328-1.656 3.828-1.656.703 0 1.344.156.656.156 1.219.453v2.719q-.625-.578-1.219-.844-.594-.281-1.219-.281-1.344 0-2.031 1.078-.688 1.062-.688 3.156 0 2.094.688 3.172.688 1.062 2.031 1.062.625 0 1.219-.265.594-.281 1.219-.86v2.72Z"/><text x="269.75" y="32.78" fill="#D9B8FF" font-family="Helvetica" font-size="17" textLength="71">resource</text><path d="M176.5 46.789h225" style="stroke:#000d19;stroke-width:.5"/><text x="186.5" y="68.784" fill="#D9B8FF" font-family="sans-serif" font-size="14" font-weight="bold" textLength="29">age</text><text x="215.5" y="68.784" fill="#D9B8FF" font-family="sans-serif" font-size="14" textLength="66">: duration</text><text x="186.5" y="95.081" fill="#D9B8FF" font-family="sans-serif" font-size="14" font-weight="bold" textLength="43">atime</text><text x="229.5" y="95.081" fill="#D9B8FF" font-family="sans-serif" font-size="14" textLength="70">: datetime</text><text x="186.5" y="121.378" fill="#D9B8FF" font-family="sans-serif" font-size="14" font-weight="bold" textLength="43">ctime</text><text x="229.5" y="121.378" fill="#D9B8FF" font-family="sans-serif" font-size="14" textLength="70">: datetime</text><text x="186.5" y="147.675" fill="#D9B8FF" font-family="sans-serif" font-size="14" font-weight="bold" textLength="14">id</text><text x="200.5" y="147.675" fill="#D9B8FF" font-family="sans-serif" font-size="14" textLength="48">: string</text><text x="186.5" y="173.972" fill="#D9B8FF" font-family="sans-serif" font-size="14" font-weight="bold" textLength="33">kind</text><text x="219.5" y="173.972" fill="#D9B8FF" font-family="sans-serif" font-size="14" textLength="48">: string</text><text x="186.5" y="200.269" fill="#D9B8FF" font-family="sans-serif" font-size="14" font-weight="bold" textLength="90">last_access</text><text x="276.5" y="200.269" fill="#D9B8FF" font-family="sans-serif" font-size="14" textLength="66">: duration</text><text x="186.5" y="226.565" fill="#D9B8FF" font-family="sans-serif" font-size="14" font-weight="bold" textLength="90">last_update</text><text x="276.5" y="226.565" fill="#D9B8FF" font-family="sans-serif" font-size="14" textLength="66">: duration</text><text x="186.5" y="252.862" fill="#D9B8FF" font-family="sans-serif" font-size="14" font-weight="bold" textLength="48">mtime</text><text x="234.5" y="252.862" fill="#D9B8FF" font-family="sans-serif" font-size="14" textLength="70">: datetime</text><text x="186.5" y="279.159" fill="#D9B8FF" font-family="sans-serif" font-size="14" font-weight="bold" textLength="43">name</text><text x="229.5" y="279.159" fill="#D9B8FF" font-family="sans-serif" font-size="14" textLength="48">: string</text><text x="186.5" y="305.456" fill="#D9B8FF" font-family="sans-serif" font-size="14" font-weight="bold" textLength="34">tags</text><text x="220.5" y="305.456" fill="#D9B8FF" font-family="sans-serif" font-size="14" textLength="171">: dictionary[string, string]</text><path fill="none" d="M289 338.65v100.03m-7-99.83 7-20 7 20h-14z" style="stroke:#ffaf37;stroke-width:2"/><g fill="none"><path d="M256.86 493.68c-30.42 32.2-75 79.4-99.7 105.54" style="stroke:#ffaf37;stroke-width:2"/><path d="m251.08 489.54 18.83-9.73-8.65 19.35-10.18-9.62z" style="stroke:#ffaf37;stroke-width:2"/></g><g fill="none"><path d="M112.69 499.1c7.03 31.89 16.63 75.41 22.07 100.12" style="stroke:#ffaf37;stroke-width:2"/><path d="m105.69 500.85 2.53-21.04 11.14 18.02-13.67 3.02z" style="stroke:#ffaf37;stroke-width:2"/></g></svg>
